X: 18
T: Inisheer
C: Tommy Walsh
Z: chansherly212
S: https://thesession.org/tunes/211#setting54003
R: waltz
M: 3/4
L: 1/8
K: Dmix
|:"G"B2BA Bd|"Em" B2BA Bd|"C" E3 B AB|"D" D3B AG|
"G"B2BA Bd|"Em"B2BA Bd|"C"G3 B "D"A/G/F|1 "G"G3 D GA:|2 "G"G3A Bd||
|:"C"e3 f ed|"G"B3 A Bd|"C" gf ed "D"B/c/d|"Em"e3 d Bd|
"C"e3f ed|"G"B3A Bd|"C"G3 B "D"A/G/F|1"G"G3A Bd:|2 "G"G3D GA |

%-------------------- TUNE SEPARATOR --------------------%

